!!!!SEGMENT: pl-kk--kk-i-62--001-005_anonim--missa-benedictus.krn
!!!cenid: 17xx:2254
!!!COM: Anonim
!!!COM-rismid: pe30004985
!!!CDT:
!!!CNT:
!!!OTL: Missa – Benedictus
!!!PDT:
!!!AGN: Sacred; Mass
!!!SMS-siglum: PL-Kk
!!!SMS-shelfmark: Kk.I.62
!!!SMS-shelfwork: 001-005 M
!!!SMS-variant:
!!!SMS-altvar:
!!!NIFC-rismid: 1001157167
!!!URL-scan: http://repozytorium.nifc.pl/skany/pl-kk-nut--i-62
!!!ONB-nifc: UWAGA: w zbiorze: 001 – Missa i 002 – Ut detus ex Agni throno. Części Mszy (001): 1. Kyrie, 2. Gloria, 3. Credo, 4. Sanctus, 5. Benedictus, 6. Agnus Dei, 7. Dona nobis.
**kern	**dynam	**kern	**dynam	**kern	**text	**kern	**text	**kern	**kern
*part6	*part6	*part5	*part5	*part4	*part4	*part3	*part3	*part2	*part1
*staff6	*	*staff5	*	*staff4	*staff4	*staff3	*staff3	*staff2	*staff1
*I"Baſso Accompagnato.	*	*I"Contra Baſso	*	*I"Baſso	*	*I"Tenore	*	*I"Alto	*I"Canto
*I'b	*	*I'cb	*	*I'B	*	*I'T	*	*I'A	*I'S
*clefF4	*	*clefF4	*	*clefF4	*	*clefC4	*	*clefG2	*clefG2
*k[b-e-a-d-]	*	*k[b-e-a-d-]	*	*k[b-e-a-]	*	*k[b-e-a-]	*	*k[b-e-a-]	*k[b-e-a-]
*M2/4	*	*M2/4	*	*M2/4	*	*M2/4	*	*M2/4	*M2/4
*all\right or middle	*	*all\right or middle	*	*all\right or middle	*	*all\right or middle	*	*	*
=1	=1	=1	=1	=1	=1	=1	=1	=1	=1
*	*	*	*	*Xtuplet	*	*	*	*	*
!LO:TX:t=P:problem:kolejność bemoli:BB-, A-, E-, D-	!	!LO:TX:t=P:problem:kolejność bemoli:BB-, A-, E-, D-	!	!LO:TX:t=P:problem:kolejność bemoli:BB-, A-, E-	!	!	!	!	!
!LO:TX:a:t=Andte molto.	!LO:DY:t=po	!LO:TX:a:t=Andte Molto.	!	!LO:TX:a:t=Due Solo	!	!LO:TX:a:t=Solo Due	!	!LO:TX:a:t=Benedictus T&colon;B&colon; Solo Tacet	!LO:TX:a:t=Benedictus T&colon;B&colon; Solo Tacet
8FF/L	p	4FF/	.	8F\L	Be-	4c\	Be-	2ryy	2ryy
.	.	.	.	.	.	.	.	.	.
8GG/J	.	.	.	8G	.	.	.	.	.
.	.	.	.	.	.	.	.	.	.
.	.	.	.	.	.	8qqB-/	.	.	.
8AA-/L	.	4F\	.	8A-\J	-ne-	4A-\	-ne-	.	.
!	!	!	!	!LO:N:vis=4	!	!	!	!	!
8FF/J	.	.	.	8F\	.	.	.	.	.
=2	=2	=2	=2	=2	=2	=2	=2	=2	=2
!	!	!LO:TX:a:t=P:problem:mixedbeam	!	!	!	!	!	!	!
8CC/L	.	8C/L	.	8FS\	-dic-	8A-/	-di-	2ryy	2ryy
8GG/J	.	8G\	.	8En\	-tus	8G/	-ctus	.	.
!LO:TX:a:t=P:problem:mixedbeam	!	!	!	!	!	!	!	!	!
8C/L	.	8C\J	.	8.r	.	8.r	.	.	.
8Gm\J	.	8r	.	.	.	.	.	.	.
.	.	.	.	16Gm\	qui	16B-\	qui	.	.
!LO:LB:g=original	!	!	!	!	!	!	!	!	!
=3	=3	=3	=3	=3	=3	=3	=3	=3	=3
8A-'/L	.	16r	.	8A-/L	ve-	2A-/	ve-	2ryy	2ryy
.	.	16A-'\	.	.	.	.	.	.	.
8F'/	.	16r	.	8F/	.	.	.	.	.
.	.	16F'\	.	.	.	.	.	.	.
8Dn'/	.	16r	.	8D/	.	.	.	.	.
.	.	16D'/	.	.	.	.	.	.	.
8BBn'/J	.	16r	.	8BBn/J	.	.	.	.	.
.	.	16BBn'/	.	.	.	.	.	.	.
!	!	!LO:LB:g=original	!	!	!	!	!	!	!
=4	=4	=4	=4	=4	=4	=4	=4	=4	=4
.	.	.	.	(16qqC/LL	.	.	.	.	.
.	.	.	.	16qqD/JJ	.	.	.	.	.
8C/L	.	4C/	.	4En\)	-nit	4G/	-nit	2ryy	2ryy
8GG/	.	.	.	.	.	.	.	.	.
8CC/J	.	4r	.	4r	.	4r	.	.	.
8r	.	.	.	.	.	.	.	.	.
!	!	!	!	!	!	!LO:LB:g=original	!	!	!
=5	=5	=5	=5	=5	=5	=5	=5	=5	=5
4FF/	.	8F\L	.	(8F\L	Be-	4c\	Be-	2ryy	2ryy
.	.	8G\	.	8G\J)	.	.	.	.	.
!	!	!	!	!LO:PB:g=original	!	!	!	!	!
4F\	.	8A-\	.	(8A-\L	-ne-	4c\	-ne-	.	.
.	.	8F\J	.	8F\J)	.	.	.	.	.
=6	=6	=6	=6	=6	=6	=6	=6	=6	=6
8BB-/L	.	8.D/L	.	(16B-\L	-dic-	(16d-X\LL	-dic-	2ryy	2ryy
.	.	.	.	16A-\J)	.	16c\JJ)	.	.	.
8C/J	.	.	.	8B-\	-tus	8d-\	-tus	.	.
.	.	16C/Jk	.	.	.	.	.	.	.
8D-X/L	.	4BB-/	.	4r	.	4r	.	.	.
8BB-/J	.	.	.	.	.	.	.	.	.
=7	=7	=7	=7	=7	=7	=7	=7	=7	=7
4FF/	.	8F\L	.	(8F\L	Be-	4c\	Be-	2ryy	2ryy
.	.	8G\	.	8G\J	.	.	.	.	.
4F\	.	8A-\	.	8A-\L	-ne-	4c\	-ne-	.	.
.	.	8F\J	.	8F\J)	.	.	.	.	.
=8	=8	=8	=8	=8	=8	=8	=8	=8	=8
8G\L	.	4G\	.	(16G\L	-dic-	(16B-\LL	-dic-	2ryy	2ryy
.	.	.	.	16F\J)	.	16A-\JJ)	.	.	.
8G\J	.	.	.	8G\	-tus	8B-\	-tus	.	.
!LO:LB:g=original	!	!	!	!	!	!	!	!	!
8En\L	.	8r	.	8r	.	8r	.	.	.
8F\J	.	8F\	.	8F\	qui	8A-/	qui	.	.
=9	=9	=9	=9	=9	=9	=9	=9	=9	=9
8c\L	.	4En\	.	8c\	ve-	8A-/	ve-	2ryy	2ryy
8G\J	.	.	.	8C/	-nit	8G/	-nit	.	.
8En/L	.	4C/	.	4r	.	4r	.	.	.
8C/J	.	.	.	.	.	.	.	.	.
!	!	!	!	!	!	!LO:LB:g=original	!	!	!
=10	=10	=10	=10	=10	=10	=10	=10	=10	=10
!LO:TX:a:t=P:problem:mixedbeam	!	!	!	!	!	!	!	!	!
8FF/L	.	4F\	.	4F\	in	(8c/L	in	2ryy	2ryy
8F\J	.	.	.	.	.	8A-/J)	.	.	.
!	!	!LO:LB:g=original	!	!	!	!	!	!	!
8C/L	.	8C/L	.	8En\	No-	8G/	No-	.	.
!	!	!	!	!LO:LB:g=original	!	!	!	!	!
8F/J	.	8F/J	.	16F\	-mi-	16F/	-mi-	.	.
.	.	.	.	16A-\	-ne	16F/	-ne	.	.
=11	=11	=11	=11	=11	=11	=11	=11	=11	=11
8C/L	.	8En\L	.	8.En\	Do-	8.c\	Do-	2ryy	2ryy
16En/L	.	8G\J	.	.	.	.	.	.	.
16G/JJ	.	.	.	16E\	-mi-	16C/	-mi-	.	.
8c\L	.	4C/	.	4E\	-ni	4C/	-ni	.	.
8c\J	.	.	.	.	.	.	.	.	.
=12	=12	=12	=12	=12	=12	=12	=12	=12	=12
4FF/	.	4F\	.	(16F\LL	Be-	4c\	Be-	2ryy	2ryy
.	.	.	.	16G\	.	.	.	.	.
.	.	.	.	16A-\	.	.	.	.	.
.	.	.	.	16G\JJ	.	.	.	.	.
4F\	.	4FF/	.	16F\LL	.	4c\	-ne-	.	.
.	.	.	.	16G\JJ	.	.	.	.	.
.	.	.	.	16A-\LL	-ne-	.	.	.	.
.	.	.	.	16F\JJ)	.	.	.	.	.
!LO:LB:g=original	!	!	!	!	!	!	!	!	!
=13	=13	=13	=13	=13	=13	=13	=13	=13	=13
8BB-/L	.	8D-/L	.	8B-\	-dic-	(16d-X\LL	-dic-	2ryy	2ryy
.	.	.	.	.	.	16c\JJ	.	.	.
[8D-/J	.	8BB-/J	.	8d-X\	-tus	8B-\)	-tus	.	.
!	!	!	!	!	!	!LO:LB:g=original	!	!	!
8D-/L]	.	4r	.	8r	.	8r	.	.	.
8BB-/J	.	.	.	8B-\	qui	8d-\	qui	.	.
=14	=14	=14	=14	=14	=14	=14	=14	=14	=14
(8FF/	.	4FF/	.	8A-\	ve-	(16c/LL	ve-	2ryy	2ryy
.	.	.	.	.	.	16B-/JJ)	.	.	.
4BBn/	.	.	.	8F\	-nit	8A-/	-nit	.	.
!	!	!	!	!LO:LB:g=original	!	!	!	!	!
.	.	4F\	.	8r	.	8r	.	.	.
8FF/)	.	.	.	8D-X/	in	8f\	in	.	.
=15	=15	=15	=15	=15	=15	=15	=15	=15	=15
8C/L	.	4c\	.	8C/L	No-	4en\	No-	2ryy	2ryy
16En/L	.	.	.	8En/J	.	.	.	.	.
16G/JJ	.	.	.	.	.	.	.	.	.
8c\L	.	4C/	.	8G\	-mi-	8e\	-mi-	.	.
8c\J	.	.	.	8c\	-ne	8e\	-ne	.	.
=16	=16	=16	=16	=16	=16	=16	=16	=16	=16
8F\L	.	4F\	.	8.A-\	Do-	8.f\	Do-	2ryy	2ryy
8G\J	.	.	.	.	.	.	.	.	.
.	.	.	.	16A-\	-mi-	16c\	-mi-	.	.
8A-\L	.	4r	.	4A-\	-ni	4c\	-ni	.	.
8F\J	.	.	.	.	.	.	.	.	.
!LO:LB:g=original	!	!LO:LB:g=original	!	!	!	!	!	!	!
=17	=17	=17	=17	=17	=17	=17	=17	=17	=17
8BB-/L	.	4BB-/	.	(16B-\LL	qui	(16d-X\LL	qui	2ryy	2ryy
.	.	.	.	16A-\J	.	16c\J	.	.	.
8D-/J	.	.	.	8B-\J)	.	8d-\J)	.	.	.
!	!	!	!	!	!	!LO:LB:g=original	!	!	!
8F\L	.	4B-\	.	16r	.	16r	.	.	.
.	.	.	.	(16B-\LL	.	(16d-\LL	.	.	.
8B-\J	.	.	.	16A-\	.	16c\	.	.	.
.	.	.	.	16B-\JJ)	.	16d-\JJ)	.	.	.
=18	=18	=18	=18	=18	=18	=18	=18	=18	=18
8FF/L	.	4FF/	.	(16A-\LL	ve-	(16c\LL	ve-	2ryy	2ryy
.	.	.	.	16G\J	.	16Bn\J	.	.	.
8AA-/J	.	.	.	8A-\J)	.	8c\J)	.	.	.
8C/L	.	4F\	.	16r	.	16r	.	.	.
.	.	.	.	(16A-\LL	.	(16c\LL	.	.	.
8F/J	.	.	.	16G\	.	16B\	.	.	.
.	.	.	.	16A-\JJ)	.	16c\JJ)	.	.	.
!	!	!	!	!LO:LB:g=original	!	!	!	!	!
=19	=19	=19	=19	=19	=19	=19	=19	=19	=19
(>8C/	.	4C/	.	(16G\LL	.	(16B-X\LL	.	2ryy	2ryy
.	.	.	.	16F\J	.	16A-\J	.	.	.
4En\	.	.	.	8G\J)	.	8B-\J)	.	.	.
.	.	4C/	.	16r	.	16r	.	.	.
.	.	.	.	(16G\LL	.	(16B-\LL	.	.	.
8C/)	.	.	.	16F\	.	16A-\	.	.	.
.	.	.	.	16G\JJ)	.	16B-\JJ)	.	.	.
=20	=20	=20	=20	=20	=20	=20	=20	=20	=20
16r	.	8F\L	.	(8F\L	.	(8A-\L	.	2ryy	2ryy
16FF/	.	.	.	.	.	.	.	.	.
16r	.	8G\	.	8G\J)	.	8B-\J)	.	.	.
16GG/	.	.	.	.	.	.	.	.	.
16r	.	8A-\	.	8A-\	nit	8c\	-nit	.	.
16AA-/	.	.	.	.	.	.	.	.	.
16r	.	8B-\J	.	8B-\	in	8d-X\	in	.	.
16BB-/	.	.	.	.	.	.	.	.	.
!	!	!	!	!	!	!LO:LB:g=original	!	!	!
=21	=21	=21	=21	=21	=21	=21	=21	=21	=21
8FF/L	.	4D-X/	.	8A-\	No-	8c\	No-	2ryy	2ryy
8BB-/J	.	.	.	16B-\	-mi-	16d\	-mi-	.	.
.	.	.	.	16G\	-ne	16B-\	-ne	.	.
8C/L	.	4C/	.	8F\	Do-	8A-/	Do-	.	.
8C/J	.	.	.	8En\	-mi-	8G/	-mi-	.	.
=22	=22	=22	=22	=22	=22	=22	=22	=22	=22
.	.	.	.	(16qqF/LL	.	.	.	.	.
!LO:TX:a:t=P:problem:mixedbeam	!	!LO:TX:a:t=P:problem:mixedbeam	!	!	!	!	!	!	!
.	.	.	.	16qqG/JJ	.	.	.	.	.
8FF/L	.	8FF/L	.	4A-\)	-ni	4F/	-ni	2ryy	2ryy
8F\	.	8F\	.	.	.	.	.	.	.
8F\J	.	8FF/J	.	4r	.	4r	.	.	.
8r	.	8r	.	.	.	.	.	.	.
!	!	!LO:LB:g=original	!	!	!	!	!	!	!
=23	=23	=23	=23	=23	=23	=23	=23	=23	=23
!	!LO:DY:t=ffo	!	!LO:DY:t=ffo	!	!	!	!	!	!
4BBn;</	ff	4Dn;</	ff	4A-;\	in	4f;\	in	2ryy	2ryy
!	!	!	!	!LO:LB:g=original	!	!	!	!	!
4r	.	4r	.	8A-\	No-	8c\	No-	.	.
.	.	.	.	16B-\	-mi-	16d\	-mi-	.	.
.	.	.	.	16G\	-ne	16B-\	-ne	.	.
=24	=24	=24	=24	=24	=24	=24	=24	=24	=24
8C/L	.	8A-X/L	.	4F\	Do-	4A-/	Do-	2ryy	2ryy
8C/	.	8F/	.	.	.	.	.	.	.
8C/	.	8G/	.	4Ent\	-mi-	4Gt/	-mi-	.	.
8C/J	.	8En/J	.	.	.	.	.	.	.
=25	=25	=25	=25	=25	=25	=25	=25	=25	=25
!	!	!	!	!	!	!	!	!LO:TX:t=Osanna di Sopra	!LO:TX:t=Osanna di Sopra
8F/L	.	8F/L	.	4F\	-ni	4F/	-ni	2ryy	2ryy
8C/	.	8C/	.	.	.	.	.	.	.
!	!	!	!	!LO:TX:a:t=Osanna Da capo	!	!LO:TX:t=Osanna di Sopra	!	!	!
8FF/J	.	8FF/J	.	4r	.	4r	.	.	.
8r	.	8r	.	.	.	.	.	.	.
==	==	==	==	==	==	==	==	==	==
*-	*-	*-	*-	*-	*-	*-	*-	*-	*-
!!!system-decoration: [(s1,s2,s3,s4)][(s5,s6)]
!!!RDF**kern: > = above
!!!RDF**kern: < = below
!!!ENC:Kamil Watkowski
!!!END:2021-08-04
